packages/ui-solid/icons/backspace_36.svg

<svg width="36" height="36" viewBox="0 0 36 36" fill="none" xmlns="http://www.w3.org/2000/svg">
<path fill-rule="evenodd" clip-rule="evenodd" d="M15.8863 6.49997C15.9199 6.49999 15.9538 6.5 15.9882 6.5L24.7413 6.5C25.5463 6.49999 26.2106 6.49998 26.7518 6.5442C27.3139 6.59012 27.8306 6.68869 28.316 6.93598C29.0686 7.31947 29.6805 7.93139 30.064 8.68404C30.3113 9.16938 30.4099 9.68608 30.4558 10.2482C30.5 10.7894 30.5 11.4537 30.5 12.2587V23.7413C30.5 24.5463 30.5 25.2106 30.4558 25.7518C30.4099 26.3139 30.3113 26.8306 30.064 27.316C29.6805 28.0686 29.0686 28.6805 28.316 29.064C27.8306 29.3113 27.3139 29.4099 26.7518 29.4558C26.2106 29.5 25.5463 29.5 24.7413 29.5H15.9882C15.9538 29.5 15.9199 29.5 15.8864 29.5C15.2514 29.5003 14.7716 29.5006 14.3089 29.3895C13.9007 29.2915 13.5105 29.1299 13.1527 28.9106C12.7469 28.6619 12.4078 28.3225 11.959 27.8733C11.9353 27.8496 11.9113 27.8256 11.887 27.8012L6.15781 22.072C5.5886 21.5028 5.11882 21.0331 4.7674 20.6191C4.40241 20.1892 4.10674 19.7541 3.93842 19.2361C3.67739 18.4327 3.67739 17.5673 3.93842 16.7639C4.10674 16.2459 4.40241 15.8108 4.7674 15.3809C5.11881 14.9669 5.58859 14.4972 6.1578 13.928L11.887 8.19878C11.9113 8.17445 11.9353 8.15043 11.959 8.12672C12.4078 7.67749 12.7469 7.33807 13.1527 7.08944C13.5105 6.87013 13.9007 6.70851 14.3089 6.61052C14.7716 6.49944 15.2514 6.49967 15.8863 6.49997ZM15.9882 8.5C15.2069 8.5 14.9792 8.50643 14.7758 8.55526C14.5717 8.60426 14.3766 8.68506 14.1976 8.79472C14.0193 8.90402 13.8537 9.06048 13.3012 9.613L7.60122 15.313C6.99553 15.9187 6.58434 16.331 6.29208 16.6752C6.0074 17.0106 5.89477 17.215 5.84053 17.382C5.71002 17.7837 5.71002 18.2163 5.84053 18.618C5.89477 18.785 6.0074 18.9894 6.29208 19.3248C6.58434 19.669 6.99553 20.0813 7.60122 20.687L13.3012 26.387C13.8537 26.9395 14.0193 27.096 14.1976 27.2053C14.3766 27.3149 14.5717 27.3957 14.7758 27.4447C14.9792 27.4936 15.2069 27.5 15.9882 27.5H24.7C25.5566 27.5 26.1389 27.4992 26.589 27.4625C27.0274 27.4266 27.2516 27.3617 27.408 27.282C27.7843 27.0903 28.0903 26.7843 28.282 26.408C28.3617 26.2516 28.4266 26.0274 28.4625 25.589C28.4992 25.1389 28.5 24.5566 28.5 23.7V12.3C28.5 11.4434 28.4992 10.8611 28.4625 10.411C28.4266 9.97262 28.3617 9.74842 28.282 9.59202C28.0903 9.2157 27.7843 8.90974 27.408 8.71799C27.2516 8.6383 27.0274 8.57337 26.589 8.53755C26.1389 8.50078 25.5566 8.5 24.7 8.5H15.9882ZM14.7929 13.2929C15.1834 12.9024 15.8166 12.9024 16.2071 13.2929L19.5 16.5858L22.7929 13.2929C23.1834 12.9024 23.8166 12.9024 24.2071 13.2929C24.5976 13.6834 24.5976 14.3166 24.2071 14.7071L20.9142 18L24.2071 21.2929C24.5976 21.6834 24.5976 22.3166 24.2071 22.7071C23.8166 23.0976 23.1834 23.0976 22.7929 22.7071L19.5 19.4142L16.2071 22.7071C15.8166 23.0976 15.1834 23.0976 14.7929 22.7071C14.4024 22.3166 14.4024 21.6834 14.7929 21.2929L18.0858 18L14.7929 14.7071C14.4024 14.3166 14.4024 13.6834 14.7929 13.2929Z" fill="#007AFF"/>
</svg>

<svg xmlns="http://www.w3.org/2000/svg" width="36" height="36" fill="none"><path fill="currentColor" fill-rule="evenodd" d="M15.886 6.5h8.855c.805 0 1.47 0 2.01.044.563.046 1.08.145 1.565.392a4 4 0 0 1 1.748 1.748c.247.485.346 1.002.392 1.564.044.541.044 1.206.044 2.01v11.483c0 .805 0 1.47-.044 2.01-.046.563-.145 1.08-.392 1.565a4 4 0 0 1-1.748 1.748c-.485.247-1.002.346-1.564.392-.541.044-1.206.044-2.01.044h-8.856c-.635 0-1.114 0-1.577-.11a4 4 0 0 1-1.156-.48c-.406-.248-.745-.587-1.194-1.037l-.072-.072-5.73-5.729c-.568-.57-1.038-1.039-1.39-1.453-.365-.43-.66-.865-.829-1.383a4 4 0 0 1 0-2.472c.169-.518.464-.953.83-1.383.35-.414.82-.884 1.39-1.453l5.729-5.73.072-.071c.449-.45.788-.789 1.194-1.038.357-.219.748-.38 1.156-.478.463-.112.942-.111 1.577-.111m.102 2c-.781 0-1.009.006-1.212.055-.204.05-.4.13-.578.24-.179.109-.344.265-.897.818l-5.7 5.7c-.605.606-1.017 1.018-1.309 1.362-.285.336-.397.54-.451.707a2 2 0 0 0 0 1.236c.054.167.166.371.451.707.292.344.704.756 1.31 1.362l5.7 5.7c.552.552.717.709.896.818q.27.165.578.24c.203.049.43.055 1.212.055H24.7c.857 0 1.439 0 1.889-.038.438-.035.663-.1.819-.18a2 2 0 0 0 .874-.874c.08-.156.145-.38.18-.819.037-.45.038-1.032.038-1.889V12.3c0-.857 0-1.439-.038-1.889-.035-.438-.1-.663-.18-.819a2 2 0 0 0-.874-.874c-.156-.08-.38-.145-.819-.18-.45-.037-1.032-.038-1.889-.038zm-1.195 4.793a1 1 0 0 1 1.414 0l3.293 3.293 3.293-3.293a1 1 0 0 1 1.414 1.414L20.914 18l3.293 3.293a1 1 0 0 1-1.414 1.414L19.5 19.414l-3.293 3.293a1 1 0 0 1-1.414-1.414L18.086 18l-3.293-3.293a1 1 0 0 1 0-1.414" clip-rule="evenodd"/></svg>
